X: 27847
T: Mother's Delight
R: reel
M: 4/4
K: Ddorian
DE|:FEDF Gz EG|FEDF GFEF|D2 d2 defe|decd ABcA|
dedc A3B|cBcA E/F/G FE|D2 dc AGAB|1 cAGF EDDE:|2 cAGF EDDE||
|:FAdA FDDF|EGcG ECCE|FAdA FDDF|EDCE D3E|
FAdA FDDF|EGcG ECCE|FAGE FEDC|1 A,DEF D3E:|2 A,DEF D2DE||

